X: 4143
T: Mrs Duncan's    Reel
C: by Nath.Gow
%R: reel
B: Niel Gow & Sons "A Fourth Collection of Strathspey Reels, etc." v.4 p.14 
Z: 2022 John Chambers <jc:trillian.mit.edu>
M: C|
L: 1/8
K: Cm
% - - - - - - - - - -
V: 1 staves=2
g | c<cgc ecgc | e<cgc dBBd | c<cgc ecge | dbfg ecc :| G | (Tcde).c GcEc | DBFB DB,B,G |
(Tcde).c GcEc | (DEF).D ECCG || Tc>dec GeFd | EcFB DB,FD | Ccec | =Bdfa | gfed ecc |]
% - - - - - - - - - -
% Voice 2 preserves the staff layout in the book.
V: 2 clef=bass middle=d
z | c'2c'2 c'2c'2 | c'2c'2 b2b2 | c'2c'2 c'2c'2 | f2g2 c2c :| z | c2c2 e2c2 | B2d2 B2Bz |
c2c2 e2B2 | G2=B2 c2Cz || c2c2 e2d2 | c2d2 B2=B2 | c2c2 G2=B2 | c2G2 C2C |]
